remix/Design/compasses-fill.svg

<svg viewBox="0 0 24 24" fill="currentColor" xmlns="http://www.w3.org/2000/svg"><path d="M10.9998 4.12272V1.9967H12.9998V4.12272C14.725 4.56676 15.9998 6.13286 15.9998 7.9967C15.9998 9.11439 15.5414 10.125 14.8023 10.8508L20.8658 21.3531L19.1338 22.3531L13.0708 11.8517C12.7299 11.9462 12.3708 11.9967 11.9998 11.9967C11.6289 11.9967 11.2697 11.9462 10.9288 11.8517L4.86584 22.3531L3.13379 21.3531L9.1973 10.8508C8.45823 10.125 7.99981 9.11439 7.99981 7.9967C7.99981 6.13286 9.27459 4.56676 10.9998 4.12272ZM11.9998 8.9967C12.5521 8.9967 12.9998 8.54899 12.9998 7.9967C12.9998 7.44442 12.5521 6.9967 11.9998 6.9967C11.4475 6.9967 10.9998 7.44442 10.9998 7.9967C10.9998 8.54899 11.4475 8.9967 11.9998 8.9967Z"/></svg>

<svg viewBox="0 0 24 24" xmlns="http://www.w3.org/2000/svg"><path fill="none" d="M0 0h24v24H0Z"/><path d="M11 4.12V1.99h2v2.12 0c2.13.55 3.42 2.73 2.87 4.87 -.19.7-.56 1.34-1.07 1.85l6.06 10.5 -1.74 1L13.05 11.82v-.001c-.71.19-1.45.19-2.15 0L4.83 22.329l-1.74-1 6.06-10.502h0c-1.58-1.55-1.6-4.09-.05-5.66 .5-.52 1.14-.89 1.85-1.07Zm1 4.87v0c.55 0 1-.45 1-1 0-.56-.45-1-1-1v0c-.56 0-1 .44-1 1 0 .55.44 1 1 1Z"/></svg>
